icons/semgrep.svg

<!--
  - The MIT License (MIT)
  -
  - Copyright (c) 2015-2024 Elior "Mallowigi" Boukhobza
  -
  - Permission is hereby granted, free of charge, to any person obtaining a copy
  - of this software and associated documentation files (the "Software"), to deal
  - in the Software without restriction, including without limitation the rights
  - to use, copy, modify, merge, publish, distribute, sublicense, and/or sell
  - copies of the Software, and to permit persons to whom the Software is
  - furnished to do so, subject to the following conditions:
  -
  - The above copyright notice and this permission notice shall be included in all
  - copies or substantial portions of the Software.
  -
  - THE SOFTWARE IS PROVIDED "AS IS", WITHOUT WARRANTY OF ANY KIND, EXPRESS OR
  - IMPLIED, INCLUDING BUT NOT LIMITED TO THE WARRANTIES OF MERCHANTABILITY,
  - FITNESS FOR A PARTICULAR PURPOSE AND NONINFRINGEMENT. IN NO EVENT SHALL THE
  - AUTHORS OR COPYRIGHT HOLDERS BE LIABLE FOR ANY CLAIM, DAMAGES OR OTHER
  - LIABILITY, WHETHER IN AN ACTION OF CONTRACT, TORT OR OTHERWISE, ARISING FROM,
  - OUT OF OR IN CONNECTION WITH THE SOFTWARE OR THE USE OR OTHER DEALINGS IN THE
  - SOFTWARE.
  -
  -->

<svg  version="1.1" width="16px" height="16px" viewBox="0 0 54 21" xmlns="http://www.w3.org/2000/svg">
  <g fill="#4CAF50" data-iconColor="Semgrep">
    <path fill-rule="evenodd" clip-rule="evenodd"
          d="M10.797 0.421143C5.24066 0.421143 0.736328 4.93375 0.736328 10.5003C0.736328 16.0669 5.24066 20.5795 10.797 20.5795C14.0906 20.5795 17.0146 18.994 18.8499 16.5432C20.6851 18.994 23.6091 20.5795 26.9027 20.5795C30.1899 20.5795 33.109 19 34.9449 16.5573C36.7808 19 39.6999 20.5795 42.9871 20.5795C48.5435 20.5795 53.0479 16.0669 53.0479 10.5003C53.0479 4.93375 48.5435 0.421143 42.9871 0.421143C39.6999 0.421143 36.7808 2.00063 34.9449 4.44339C33.109 2.00063 30.1899 0.421143 26.9027 0.421143C23.6091 0.421143 20.6851 2.00671 18.8499 4.45749C17.0146 2.00671 14.0906 0.421143 10.797 0.421143ZM4.76062 10.5003C4.76062 13.8403 7.46322 16.5478 10.797 16.5478C14.1309 16.5478 16.8335 13.8403 16.8335 10.5003C16.8335 7.16038 14.1309 4.45282 10.797 4.45282C7.46322 4.45282 4.76062 7.16038 4.76062 10.5003ZM36.9586 10.813C36.9618 10.7092 36.9634 10.6049 36.9634 10.5003C36.9634 10.3957 36.9618 10.2915 36.9586 10.1876C37.1211 6.99302 39.758 4.45282 42.9871 4.45282C46.321 4.45282 49.0236 7.16038 49.0236 10.5003C49.0236 13.8403 46.321 16.5478 42.9871 16.5478C39.758 16.5478 37.1211 14.0076 36.9586 10.813ZM32.9312 10.1876C32.7688 6.99302 30.1318 4.45282 26.9027 4.45282C23.5688 4.45282 20.8662 7.16038 20.8662 10.5003C20.8662 13.8403 23.5688 16.5478 26.9027 16.5478C30.1318 16.5478 32.7688 14.0076 32.9312 10.813C32.928 10.7092 32.9264 10.6049 32.9264 10.5003C32.9264 10.3957 32.928 10.2915 32.9312 10.1876Z"
    />
    <path fill-rule="evenodd" clip-rule="evenodd"
          d="M4.76061 10.5003C4.76061 13.8403 7.46322 16.5478 10.797 16.5478C14.1309 16.5478 16.8335 13.8403 16.8335 10.5003C16.8335 7.16038 14.1309 4.45282 10.797 4.45282C7.46322 4.45282 4.76061 7.16038 4.76061 10.5003ZM10.797 0.421143C5.24066 0.421143 0.736328 4.93375 0.736328 10.5003C0.736328 16.0669 5.24066 20.5795 10.797 20.5795C16.3534 20.5795 20.8578 16.0669 20.8578 10.5003C20.8578 4.93375 16.3534 0.421143 10.797 0.421143Z"
    />
    <path fill-rule="evenodd" clip-rule="evenodd"
          d="M36.9501 10.5003C36.9501 13.8403 39.6527 16.5478 42.9865 16.5478C46.3203 16.5478 49.0229 13.8403 49.0229 10.5003C49.0229 7.16038 46.3203 4.45282 42.9865 4.45282C39.6527 4.45282 36.9501 7.16038 36.9501 10.5003ZM42.9865 0.421143C37.4301 0.421143 32.9258 4.93375 32.9258 10.5003C32.9258 16.0669 37.4301 20.5795 42.9865 20.5795C48.5429 20.5795 53.0472 16.0669 53.0472 10.5003C53.0472 4.93375 48.5429 0.421143 42.9865 0.421143Z"
    />
    <path
        d="M26.8895 16.5482C23.5557 16.5482 20.8531 13.8407 20.853 10.5008H20.8578C20.8578 4.93424 16.3534 0.421631 10.797 0.421631C5.24067 0.421631 0.736328 4.93424 0.736328 10.5008H4.76061C4.76061 7.16087 7.46322 4.4533 10.797 4.4533C14.1308 4.4533 16.8334 7.16081 16.8335 10.5007H16.8287C16.8287 16.0673 21.3331 20.5799 26.8895 20.5799C32.4458 20.5799 36.9501 16.0673 36.9502 10.5008H36.9506C36.9506 7.16087 39.6532 4.45331 42.987 4.45331C46.3209 4.45331 49.0235 7.16087 49.0235 10.5008L53.0478 10.5008C53.0478 4.93424 48.5434 0.421631 42.987 0.421631C37.4307 0.421631 32.9264 4.93418 32.9263 10.5007H32.9259C32.9259 13.8406 30.2233 16.5482 26.8895 16.5482Z"
    />
  </g>
</svg>

<svg xmlns="http://www.w3.org/2000/svg" viewBox="0 0 54 21"><g fill="#4caf50" data-iconColor="Semgrep"><path fill-rule="evenodd" d="M10.797.421C5.241.421.737 4.934.737 10.501c0 5.566 4.504 10.079 10.06 10.079a10.04 10.04 0 0 0 8.053-4.037 10.04 10.04 0 0 0 8.053 4.037 10.04 10.04 0 0 0 8.042-4.023 10.04 10.04 0 0 0 8.042 4.023c5.557 0 10.06-4.513 10.06-10.08 0-5.566-4.503-10.079-10.06-10.079a10.04 10.04 0 0 0-8.042 4.022A10.04 10.04 0 0 0 26.903.421a10.04 10.04 0 0 0-8.053 4.036A10.04 10.04 0 0 0 10.797.421m-6.036 10.08a6.04 6.04 0 0 0 6.036 6.047 6.04 6.04 0 0 0 6.037-6.048 6.04 6.04 0 0 0-6.037-6.047A6.04 6.04 0 0 0 4.761 10.5m32.198.312a10 10 0 0 0 0-.625 6.04 6.04 0 0 1 6.028-5.735 6.04 6.04 0 0 1 6.037 6.047 6.04 6.04 0 0 1-6.037 6.048 6.04 6.04 0 0 1-6.028-5.735m-4.028-.625a6.04 6.04 0 0 0-6.028-5.735 6.04 6.04 0 0 0-6.037 6.047 6.04 6.04 0 0 0 6.037 6.048 6.04 6.04 0 0 0 6.028-5.735 10 10 0 0 1 0-.625" clip-rule="evenodd"/><path fill-rule="evenodd" d="M4.76 10.5a6.04 6.04 0 0 0 6.037 6.048 6.04 6.04 0 0 0 6.037-6.048 6.04 6.04 0 0 0-6.037-6.047A6.04 6.04 0 0 0 4.761 10.5M10.798.421C5.241.421.737 4.934.737 10.501c0 5.566 4.504 10.079 10.06 10.079s10.06-4.513 10.06-10.08c0-5.566-4.504-10.079-10.06-10.079M36.95 10.5a6.04 6.04 0 0 0 6.036 6.048 6.04 6.04 0 0 0 6.037-6.048 6.04 6.04 0 0 0-6.037-6.047A6.04 6.04 0 0 0 36.95 10.5M42.986.421c-5.556 0-10.06 4.513-10.06 10.08 0 5.566 4.504 10.079 10.06 10.079s10.061-4.513 10.061-10.08c0-5.566-4.504-10.079-10.06-10.079" clip-rule="evenodd"/><path d="M26.89 16.548a6.04 6.04 0 0 1-6.037-6.047h.005c0-5.567-4.505-10.08-10.061-10.08S.737 4.935.737 10.502H4.76a6.04 6.04 0 0 1 6.036-6.048 6.04 6.04 0 0 1 6.037 6.048h-.005c0 5.566 4.504 10.079 10.06 10.079S36.95 16.067 36.95 10.5a6.04 6.04 0 0 1 6.037-6.047 6.04 6.04 0 0 1 6.036 6.048h4.025c0-5.567-4.505-10.08-10.061-10.08s-10.06 4.513-10.06 10.08h-.001a6.04 6.04 0 0 1-6.036 6.047"/></g></svg>
